svgs/sharp-regular/keyboard-brightness-low.svg

<svg xmlns="http://www.w3.org/2000/svg" viewBox="0 0 640 512"><!--! Font Awesome Pro 6.6.0 by @fontawesome - https://fontawesome.com License - https://fontawesome.com/license (Commercial License) Copyright 2024 Fonticons, Inc. --><path d="M344 128l-48 0 0 48 48 0 0-48zM112 368l-48 0 0 48 48 0 0-48zm104 0l-24 0 0 48 24 0 208 0 24 0 0-48-24 0-208 0zm312 0l0 48 48 0 0-48-48 0zM484 202L450.1 236 484 269.9 518 236 484 202zM156 202L122 236 156 269.9 189.9 236 156 202z"/></svg>

<svg xmlns="http://www.w3.org/2000/svg" viewBox="0 0 640 512"><!--! Font Awesome Pro 6.4.0 by @fontawesome - https://fontawesome.com License - https://fontawesome.com/license (Commercial License) Copyright 2023 Fonticons, Inc. --><path d="M344 128H296v48h48V128zM112 368H64v48h48V368zm104 0H192v48h24H424h24V368H424 216zm312 0v48h48V368H528zM484 202L450.1 236 484 269.9 518 236 484 202zM156 202L122 236 156 269.9 189.9 236 156 202z"/></svg>
